X: 1
T: Hound Of Ulster, The
M: 4/4
L: 1/8
R: reel
K: Emin
|:E2 BE cEBE|(3EEE BE cEBE|(3EEE BE cEBE|
GBAF GFED|(3EEE BE cEBE|(3EEE BE cEBE|
(3EEE BE cEBE|1 BAFG E3 D:|2 BAFG E2 (3DEF||
|:G2 GF GABc|dg2 fe2 c2|(3ccB cB ABAG|
FGFE DEFD|G2 GF GABc|dg2 fe2 c2|
(3ccB cB ABAG|1 FDEF G2 (3DEF:|2 FDEF G3 D|
